static/img/device/cable-power2.svg

<svg xmlns="http://www.w3.org/2000/svg" width="443" height="46" fill="none" viewBox="0 0 443 46"><path fill="#fff" d="M442.22 0H0v45.9h442.22z"/><path stroke="#000" stroke-linecap="round" stroke-linejoin="round" stroke-width=".67" d="M408.21 17.31h-17.22"/><path stroke="#e60012" stroke-linecap="square" stroke-linejoin="round" stroke-width="3.78" d="M391.01 17.31H33.28M431.82 17.31h-23.58"/><path stroke="#000" stroke-linecap="round" stroke-linejoin="round" stroke-width=".67" d="M408.21 27.93h-17.82"/><path stroke="#231815" stroke-linecap="square" stroke-linejoin="round" stroke-width="3.78" d="M391.01 27.93H33.28M431.82 27.93h-23.58"/><path fill="#fff" d="M33.28 9h-3.6v27.89h3.6z"/><path stroke="#fff" stroke-linecap="round" stroke-linejoin="round" stroke-width=".1" d="M33.28 9h-3.6v27.89h3.6z"/><path fill="#fff" d="M29.68 12.45V9h3.6v27.9h-3.6v-3.3H9V12.45z"/><path stroke="#000" stroke-linecap="round" stroke-linejoin="round" stroke-width=".33" d="M26.24 12.45v1.8H17.7v6.89h8.54v3.3H17.7v7.04h8.54v1.65M12.45 12.45v3.45h3.45v3.44h-3.45v7.04h3.45v3.3h-3.45v3.45M29.68 33.6V12.45"/><path stroke="#000" stroke-linecap="round" stroke-linejoin="round" d="M29.68 12.45V9h3.6v27.9h-3.6v-3.3H9V12.45z"/></svg>

<svg width="443" height="46" viewBox="0 0 443 46" fill="none" xmlns="http://www.w3.org/2000/svg">
<path d="M442.22 0H0V45.9H442.22V0Z" fill="white"/>
<path d="M408.21 17.31H390.99" stroke="black" stroke-width="0.67" stroke-linecap="round" stroke-linejoin="round"/>
<path d="M391.01 17.31H33.28" stroke="#E60012" stroke-width="3.78" stroke-linecap="square" stroke-linejoin="round"/>
<path d="M431.82 17.31H408.24" stroke="#E60012" stroke-width="3.78" stroke-linecap="square" stroke-linejoin="round"/>
<path d="M408.21 27.93H390.39" stroke="black" stroke-width="0.67" stroke-linecap="round" stroke-linejoin="round"/>
<path d="M391.01 27.93H33.28" stroke="#231815" stroke-width="3.78" stroke-linecap="square" stroke-linejoin="round"/>
<path d="M431.82 27.93H408.24" stroke="#231815" stroke-width="3.78" stroke-linecap="square" stroke-linejoin="round"/>
<path d="M33.28 9H29.68V36.89H33.28V9Z" fill="white"/>
<path d="M33.28 9H29.68V36.89H33.28V9Z" stroke="white" stroke-width="0.1" stroke-linecap="round" stroke-linejoin="round"/>
<path d="M29.68 12.45V9H33.28V36.9H29.68V33.6H9V12.45H29.68Z" fill="white"/>
<path d="M26.24 12.45V14.25H17.7V21.14H26.24V22.79V24.44H17.7V31.48H26.24V33.13" stroke="black" stroke-width="0.33" stroke-linecap="round" stroke-linejoin="round"/>
<path d="M12.45 12.45V15.9H15.9V19.34H12.45V22.79V26.38H15.9V29.68H12.45V33.13" stroke="black" stroke-width="0.33" stroke-linecap="round" stroke-linejoin="round"/>
<path d="M29.68 33.6V12.45" stroke="black" stroke-width="0.33" stroke-linecap="round" stroke-linejoin="round"/>
<path d="M29.68 12.45V9H33.28V36.9H29.68V33.6H9V12.45H29.68Z" stroke="black" stroke-linecap="round" stroke-linejoin="round"/>
</svg>
